X:278
T: Sheng jizi jiao ming
N: C0495
O: China, Gansu, Huixian
S: I, 145, 1)]
N: Es wird das Gackern eines Huhns imitiert. Entsprechend besteht der
N: Text nur aus Fuellwoertern.
R: Haozi, Jigong haozi, Jaodung xiuxi, Xiqing, Hunyan shang chang]
M: 2/4
L: 1/16
K: Bb
z2f2 | f2f4c2 | e6c2 | f2f4c2 | b6g2 | f6
f2 | f2f4c2 | e6c2 | f2f4c2 | b6g2 | f6
f2 | c3fc2b2 | c3fc2b2 | g2ffb2f2 | a6f2
c3fc2b2 | c3fc2b2 | g2ffb2f2 | a6f2
f2f4c2 | e6c2 | f2f4c2 | b6g2 | f6z2

